resources/themes/cura-light/images/first_run_machine_types.svg

<?xml version="1.0" encoding="UTF-8"?>
<svg width="107px" height="81px" viewBox="0 0 107 81" version="1.1" xmlns="http://www.w3.org/2000/svg" xmlns:xlink="http://www.w3.org/1999/xlink">
    <!-- Generator: Sketch 53.2 (72643) - https://sketchapp.com -->
    <title>Machine types</title>
    <desc>Created with Sketch.</desc>
    <g id="0419-data-collection-update" stroke="none" stroke-width="1" fill="none" fill-rule="evenodd">
        <g id="4.-collect-data-updated" transform="translate(-410.000000, -330.000000)">
            <g id="Machine-types" transform="translate(410.000000, 330.000000)">
                <rect id="Rectangle-Copy-4" fill="#CCCCCC" x="8" y="3" width="99" height="78"></rect>
                <rect id="Rectangle-Copy-8" fill="#E5E5E5" x="0" y="0" width="103" height="78"></rect>
                <rect id="Rectangle-Copy-18" fill="#104CAA" x="19" y="52" width="10" height="16"></rect>
                <rect id="Rectangle-Copy-21" fill="#0063FF" x="19" y="45" width="10" height="17"></rect>
                <rect id="Rectangle-Copy-24" fill="#E8F2FC" x="19" y="40" width="10" height="6"></rect>
                <rect id="Rectangle-Copy-19" fill="#104CAA" x="49" y="56" width="10" height="12"></rect>
                <rect id="Rectangle-Copy-22" fill="#0063FF" x="49" y="53" width="10" height="4"></rect>
                <rect id="Rectangle-Copy-25" fill="#E8F2FC" x="49" y="48" width="10" height="6"></rect>
                <rect id="Rectangle-Copy-20" fill="#104CAA" x="79" y="59" width="10" height="9"></rect>
                <rect id="Rectangle-Copy-23" fill="#0063FF" x="79" y="46" width="10" height="16"></rect>
                <rect id="Rectangle-Copy-26" fill="#E8F2FC" x="79" y="43" width="10" height="4"></rect>
                <g id="UMS5" transform="translate(14.000000, 14.000000)" fill="#7E7E7E" fill-rule="nonzero">
                    <path d="M18.9321429,0 L0.0508928571,0 L0,0.0333611343 L0,19.9666389 L0.0339285714,20 L1.25535714,20 C1.62857143,19.4328607 2.54464286,19.5162636 2.54464286,19.5162636 L16.4553571,19.5162636 C16.4553571,19.5162636 17.3714286,19.4495413 17.7446429,20 L18.9660714,20 L19,19.9666389 L19,0.0333611343 L18.9321429,0 Z M17.7276786,15.5963303 C17.7276786,16.2301918 17.2017857,16.7306088 16.5741071,16.7306088 L2.42589286,16.7306088 C1.78125,16.7306088 1.27232143,16.2301918 1.27232143,15.5963303 L1.27232143,2.03502919 C1.27232143,1.93494579 1.35714286,1.83486239 1.47589286,1.83486239 L17.5410714,1.83486239 C17.6428571,1.83486239 17.7446429,1.91826522 17.7446429,2.03502919 L17.7276786,15.5963303 Z" id="Shape"></path>
                    <polygon id="Path" points="9.21212121 0 9.78787879 0 9.78787879 17.6470588 9.21212121 17.6470588"></polygon>
                </g>
                <g id="UM3" transform="translate(47.000000, 17.000000)" fill="#7E7E7E" fill-rule="nonzero">
                    <path d="M13.8997613,0 L0.100238663,0 C0.0501193317,0 0,0.0534031414 0,0.106806283 L0,16.8931937 C0,16.9465969 0.0501193317,17 0.100238663,17 L1.00238663,17 C1.20286396,17 1.40334129,16.9643979 1.50357995,16.7863874 L1.60381862,16.6795812 C1.73747017,16.5549738 1.92124105,16.4837696 2.10501193,16.4659686 L11.8949881,16.4659686 C12.0954654,16.4659686 12.2959427,16.5015707 12.3961814,16.6795812 L12.49642,16.7863874 C12.6300716,16.9109948 12.8138425,16.982199 12.9976134,17 L13.8997613,17 C13.9498807,17 14,16.9465969 14,16.8931937 L14,0.106806283 C14,0.0534031414 13.9498807,0 13.8997613,0 Z M12.4630072,12.8879581 C12.4630072,13.3863874 12.0787589,13.7958115 11.6109785,13.7958115 L2.35560859,13.7958115 C1.88782816,13.7958115 1.50357995,13.3863874 1.50357995,12.8879581 L1.50357995,1.86910995 C1.50357995,1.69109948 1.6372315,1.53089005 1.82100239,1.53089005 L12.1622912,1.53089005 C12.3293556,1.53089005 12.4797136,1.67329843 12.4797136,1.86910995 L12.4797136,12.8879581 L12.4630072,12.8879581 Z" id="Shape"></path>
                </g>
                <g id="UM2e" transform="translate(76.000000, 12.000000)" fill="#7E7E7E" fill-rule="nonzero">
                    <path d="M13.8392857,0.55 C13.625,0.55 13.4107143,0.513333333 13.3035714,0.33 L13.1964286,0.22 C13.0464936,0.087818331 12.8580799,0.0104431035 12.6607143,0 L2.26785714,0 C2.05357143,0 1.83928571,0.0366666667 1.73214286,0.22 L1.625,0.33 C1.47506501,0.462181669 1.28665131,0.539556897 1.08928571,0.55 L0.0178571429,0.55 L0.0178571429,22 L1.08928571,22 C1.30357143,22 1.51785714,21.9633333 1.625,21.78 L1.73214286,21.67 C1.88207784,21.5378183 2.07049155,21.460443 2.26785714,21.45 L12.7321429,21.45 C12.9464286,21.45 13.1607143,21.4866667 13.2678571,21.67 L13.375,21.78 C13.524935,21.9121817 13.7133487,21.989557 13.9107143,22 L14.9821429,22 L14.9821429,0.55 L13.8392857,0.55 Z M13.3035714,18.0216667 C13.2678571,18.1316667 13.1607143,18.1683333 13.0535714,18.2416667 L10.5714286,18.6083333 C8.44642857,18.755 6.42857143,18.755 4.32142857,18.6083333 L1.83928571,18.2416667 C1.73214286,18.2416667 1.625,18.1316667 1.625,18.0216667 L1.625,1.90666667 C1.625,1.76 1.76785714,1.57666667 1.94642857,1.57666667 L13.0892857,1.57666667 C13.1964286,1.57666667 13.3392857,1.72333333 13.3392857,1.90666667 L13.3392857,18.0033333 L13.3035714,18.0033333 L13.3035714,18.0216667 Z" id="Shape"></path>
                </g>
            </g>
        </g>
    </g>
</svg>

<?xml version="1.0" encoding="utf-8"?>
<!-- Generator: Adobe Illustrator 26.3.1, SVG Export Plug-In . SVG Version: 6.00 Build 0)  -->
<svg version="1.1" id="Warstwa_1" xmlns="http://www.w3.org/2000/svg" xmlns:xlink="http://www.w3.org/1999/xlink" x="0px" y="0px"
	 viewBox="0 0 107 81" style="enable-background:new 0 0 107 81;" xml:space="preserve">
<style type="text/css">
	.st0{fill-rule:evenodd;clip-rule:evenodd;fill:#C1C2C4;}
	.st1{fill-rule:evenodd;clip-rule:evenodd;fill:#F3F3F3;}
	.st2{fill-rule:evenodd;clip-rule:evenodd;fill:#104CAA;}
	.st3{fill-rule:evenodd;clip-rule:evenodd;fill:#707070;}
	.st4{fill:#707070;}
</style>
<rect id="Rectangle-Copy-4" x="8" y="3" class="st0" width="99" height="78"/>
<rect id="Rectangle-Copy-8" y="0" class="st1" width="103" height="78"/>
<rect id="Rectangle-Copy-18" x="19" y="52" class="st2" width="10" height="16"/>
<rect id="Rectangle-Copy-21" x="19" y="45" class="st3" width="10" height="17"/>
<rect id="Rectangle-Copy-24" x="19" y="40" class="st0" width="10" height="6"/>
<rect id="Rectangle-Copy-19" x="49" y="56" class="st2" width="10" height="12"/>
<rect id="Rectangle-Copy-22" x="49" y="52.8" class="st3" width="10" height="4"/>
<rect id="Rectangle-Copy-25" x="49" y="48" class="st0" width="10" height="6"/>
<rect id="Rectangle-Copy-20" x="79" y="59" class="st2" width="10" height="9"/>
<rect id="Rectangle-Copy-23" x="79" y="46" class="st3" width="10" height="16"/>
<rect id="Rectangle-Copy-26" x="79" y="43" class="st0" width="10" height="4"/>
<g id="UMS5" transform="translate(14.000000, 14.000000)">
	<path id="Shape" class="st4" d="M18.9,0H0.1L0,0V20l0,0h1.2c0.4-0.6,1.3-0.5,1.3-0.5h13.9c0,0,0.9-0.1,1.3,0.5H19l0,0L18.9,0
		L18.9,0z M17.7,15.6c0,0.6-0.5,1.1-1.2,1.1H2.4c-0.6,0-1.2-0.5-1.2-1.1V2c0-0.1,0.1-0.2,0.2-0.2h16.1c0.1,0,0.2,0.1,0.2,0.2
		L17.7,15.6z"/>
	<polygon id="Path" class="st4" points="9.2,0 9.8,0 9.8,17.6 9.2,17.6 	"/>
</g>
<g id="UM3" transform="translate(47.000000, 17.000000)">
	<path id="Shape_00000076588722791516862980000005320390772403657352_" class="st4" d="M13.9,0H0.1C0.1,0,0,0.1,0,0.1v16.8
		C0,16.9,0.1,17,0.1,17H1c0.2,0,0.4,0,0.5-0.2l0.1-0.1c0.1-0.1,0.3-0.2,0.5-0.2h9.8c0.2,0,0.4,0,0.5,0.2l0.1,0.1
		c0.1,0.1,0.3,0.2,0.5,0.2h0.9c0.1,0,0.1-0.1,0.1-0.1V0.1C14,0.1,13.9,0,13.9,0z M12.5,12.9c0,0.5-0.4,0.9-0.9,0.9H2.4
		c-0.5,0-0.9-0.4-0.9-0.9v-11c0-0.2,0.1-0.3,0.3-0.3h10.3c0.2,0,0.3,0.1,0.3,0.3L12.5,12.9L12.5,12.9z"/>
</g>
<g id="UM2e" transform="translate(76.000000, 12.000000)">
	<path id="Shape_00000078736099454935088750000007457930252022171063_" class="st4" d="M13.8,0.5c-0.2,0-0.4,0-0.5-0.2l-0.1-0.1
		C13,0.1,12.9,0,12.7,0H2.3C2.1,0,1.8,0,1.7,0.2L1.6,0.3C1.5,0.5,1.3,0.5,1.1,0.5H0V22h1.1c0.2,0,0.4,0,0.5-0.2l0.1-0.1
		c0.1-0.1,0.3-0.2,0.5-0.2h10.5c0.2,0,0.4,0,0.5,0.2l0.1,0.1c0.1,0.1,0.3,0.2,0.5,0.2H15V0.5H13.8z M13.3,18c0,0.1-0.1,0.1-0.2,0.2
		l-2.5,0.4c-2.1,0.1-4.1,0.1-6.2,0l-2.5-0.4c-0.1,0-0.2-0.1-0.2-0.2V1.9c0-0.1,0.1-0.3,0.3-0.3h11.1c0.1,0,0.2,0.1,0.2,0.3L13.3,18
		L13.3,18L13.3,18z"/>
</g>
</svg>
